X:1943
L:1/8
M:4/4
K:G
 D2 dB | AGFE | D2 dB A2 A2 | D2 dB ABde | efed e2 dB || defg abaf | abaf dBAB | defg a2 a2 | 
 bagf e2 dB ||

